packages/icons/svg/Outline/checkmark-circle.svg

<svg fill="none" height="24" viewBox="0 0 24 24" width="24" xmlns="http://www.w3.org/2000/svg"><path clip-rule="evenodd" d="m14.7046 8.3945-3.784 4.969-1.63302-2.086c-.34-.436-.97-.512-1.404-.171-.435.34-.512.969-.171 1.403l2.43102 3.107c.19.242.48.383.788.383h.007c.309-.001.601-.147.788-.394l4.569-6c.335-.44.25-1.066-.19-1.401-.441-.335-1.067-.249-1.401.19zm-2.7046 11.6056c-4.41098 0-7.99998-3.589-7.99998-8 0-4.41104 3.589-8.00003 7.99998-8.00003 4.411 0 8 3.58899 8 8.00003 0 4.411-3.589 8-8 8zm0-18.0001c-5.523 0-10 4.478-10 10s4.477 10 10 10 10-4.478 10-10-4.477-10-10-10z" fill="#6b7280" fill-rule="evenodd"/></svg>

<svg width="24" height="24" viewBox="0 0 24 24" fill="none" xmlns="http://www.w3.org/2000/svg">
<g id="Icon/Outline/checkmark-circle">
<path id="Mask" fill-rule="evenodd" clip-rule="evenodd" d="M14.7046 8.3945L10.9206 13.3635L9.2876 11.2775C8.9476 10.8415 8.3176 10.7655 7.8836 11.1065C7.4486 11.4465 7.3716 12.0755 7.7126 12.5095L10.1436 15.6165C10.3336 15.8585 10.6236 15.9995 10.9316 15.9995H10.9386C11.2476 15.9985 11.5396 15.8525 11.7266 15.6055L16.2956 9.6055C16.6306 9.1655 16.5456 8.5395 16.1056 8.2045C15.6646 7.8695 15.0386 7.9555 14.7046 8.3945ZM12 20C7.589 20 4 16.411 4 12C4 7.589 7.589 4 12 4C16.411 4 20 7.589 20 12C20 16.411 16.411 20 12 20ZM12 2C6.477 2 2 6.478 2 12C2 17.522 6.477 22 12 22C17.523 22 22 17.522 22 12C22 6.478 17.523 2 12 2Z" fill="#000000"/>
</g>
</svg>
